; generated by PrusaSlicer 2.7.4+win64 on 2024-11-19 at 04:22:47 UTC


;
;

;
;
; 

; external perimeters extrusion width = 0.45mm
; perimeters extrusion width = 0.45mm
; infill extrusion width = 0.45mm
; solid infill extrusion width = 0.45mm
; top infill extrusion width = 0.40mm
; support material extrusion width = 0.38mm
; first layer extrusion width = 0.42mm

;TYPE:Custom
;STARTGCODE
M117 Initializing
; Set coordinate modes
G90 ; use absolute coordinates
M83 ; extruder relative mode
; Reset speed and extrusion rates
M200 D0 ; disable volumetric E
M220 S100 ; reset speed
; Set initial warmup temps
M117 Nozzle preheat
M104 S100 ; preheat extruder to no ooze temp
M140 S60 ; set bed temp
M190 S60 ; wait for bed final temp
M300 S40 P10 ; Bip
; Home
M117 Homing
G28 ; home all with default mesh bed level
; For ABL users put G29 for a leveling request
; Final warmup routine
M117 Final warmup
M104 S205 ; set extruder final temp
M109 S205 ; wait for extruder final temp
M190 S60 ; wait for bed final temp
M300 S440 P200     ; 1st beep for printer ready and allow some time to clean nozzle
M300 S0 P250       ; wait between dual beep
M300 S440 P200     ; 2nd beep for printer ready
G4 S10             ; wait to clean the nozzle
M300 S440 P200     ; 3rd beep for ready to start printing
; Prime line routine
M117 Printing prime line
;M900 K0; Disable Linear Advance (Marlin) for prime line
G92 E0.0; reset extrusion distance
G1 X-54.672 Y-95.203 Z0.3 F4000; go outside print area
G92 E0.0; reset extrusion distance
G1 E2 F1000 ; de-retract and push ooze
G3 X38.904 Y-102.668 I54.672 J95.105 E20.999
G3 X54.671 Y-95.203 I-38.815 J102.373 E5.45800
G92 E0.0
G1 E-5 F3000 ; retract 5mm
G1 X52.931 Y-96.185 F1000 ; wipe
G1 X50.985 Y-97.231 F1000 ; wipe
G1 X49.018 Y-98.238 F1000 ; wipe
G1 X0 Y-109.798 F1000
G1 E4.8 F1500; de-retract
G92 E0.0 ; reset extrusion distance
; Final print adjustments
M117 Preparing to print
;M82 ; extruder absolute mode
M221 S95
M300 S40 P10 ; chirp
M117 Print
G21 ; set units to millimeters
G90 ; use absolute coordinates
M83 ; use relative distances for extrusion
; Filament gcode
;M900 K0.22 ; Linear Advance 1.5
M107
;LAYER_CHANGE
;Z:0.2
;HEIGHT:0.2
G1 E-3 F1800
G1 Z.6 F9000
G1 X-16.02 Y-3.264
G1 Z.2
G1 E3 F1800
M204 S1000
;TYPE:Skirt/Brim
;WIDTH:0.42
G1 F1200
G1 X-14.199 Y-12.201 E.28597
G1 X-13.887 Y-13.322 E.03648
G1 X-13.588 Y-14.056 E.02485
G1 X-13.014 Y-15.107 E.03755
G1 X-12.114 Y-16.273 E.04618
G1 X-11.301 Y-17.048 E.03522
G1 X-10.16 Y-17.852 E.04376
G1 X-9.105 Y-18.379 E.03698
G1 X-7.751 Y-18.814 E.04459
G1 X-6.569 Y-19.003 E.03753
G1 X-5.096 Y-19.006 E.04618
G1 X-4.27 Y-18.893 E.02614
G1 X11.3 Y-15.713 E.49826
G1 X12.707 Y-15.275 E.0462
G1 X14.171 Y-14.5 E.05194
G1 X15.565 Y-13.355 E.05656
G1 X16.14 Y-12.708 E.02714
G1 X16.755 Y-11.83 E.03361
G1 X22.763 Y-1.027 E.38758
G1 X23.351 Y.287 E.04514
G1 X23.597 Y1.118 E.02717
G1 X23.81 Y2.476 E.0431
G1 X23.831 Y3.415 E.02945
G1 X23.726 Y4.481 E.03359
G1 X23.538 Y5.357 E.02809
G1 X23.053 Y6.694 E.04459
G1 X22.615 Y7.526 E.02948
G1 X21.988 Y8.431 E.03452
G1 X21.384 Y9.117 E.02866
G1 X20.551 Y9.862 E.03504
G1 X11.066 Y17.241 E.37679
G1 X9.912 Y17.992 E.04317
G1 X8.514 Y18.601 E.04781
G1 X6.825 Y18.977 E.05425
G1 X5.725 Y19.035 E.03454
G1 X4.838 Y18.98 E.02786
G1 X-11.301 Y15.713 E.51629
G1 X-12.114 Y15.491 E.02642
G1 X-12.944 Y15.173 E.02787
G1 X-14.171 Y14.5 E.04388
G1 X-15.565 Y13.355 E.05656
G1 X-16.14 Y12.708 E.02714
G1 X-16.755 Y11.83 E.03361
G1 X-17.532 Y10.198 E.05667
G1 X-17.778 Y9.368 E.02714
G1 X-17.991 Y8.01 E.0431
G1 X-18.012 Y7.071 E.02945
G1 X-17.902 Y5.975 E.03454
G1 X-16.032 Y-3.205 E.29374
M204 S1500
G1 X-16.032 Y-3.205 F9000
G1 X-15.663 Y-3.13
M204 S1000
G1 F1200
G1 X-13.83 Y-12.125 E.28783
G1 X-13.443 Y-13.433 E.04277
G1 X-12.83 Y-14.688 E.04379
G1 X-12.223 Y-15.564 E.03342
G1 X-11.251 Y-16.594 E.0444
G1 X-9.974 Y-17.524 E.04953
G1 X-8.954 Y-18.034 E.03576
G1 X-7.672 Y-18.445 E.04221
G1 X-6.531 Y-18.628 E.03623
G1 X-5.134 Y-18.631 E.0438
G1 X-4.346 Y-18.523 E.02494
G1 X11.225 Y-15.344 E.49829
G1 X12.558 Y-14.928 E.04378
G1 X13.959 Y-14.189 E.04966
G1 X15.291 Y-13.096 E.05402
G1 X15.842 Y-12.477 E.02598
G1 X16.437 Y-11.628 E.03251
G1 X22.433 Y-.844 E.38688
G1 X22.899 Y.152 E.03448
G1 X23.161 Y.938 E.02598
G1 X23.381 Y2.001 E.03404
G1 X23.454 Y3.396 E.0438
G1 X23.353 Y4.428 E.03251
G1 X23.172 Y5.266 E.02688
G1 X22.713 Y6.531 E.04219
G1 X22.295 Y7.326 E.02816
G1 X21.688 Y8.203 E.03344
G1 X21.11 Y8.857 E.02737
G1 X20.319 Y9.565 E.03328
G1 X10.834 Y16.943 E.37677
G1 X9.973 Y17.524 E.03257
G1 X8.953 Y18.034 E.03576
G1 X7.672 Y18.446 E.04219
G1 X6.787 Y18.602 E.02818
G1 X5.722 Y18.658 E.03344
G1 X4.877 Y18.605 E.02655
G1 X-11.709 Y15.221 E.53076
G1 X-12.558 Y14.928 E.02816
G1 X-13.49 Y14.475 E.03249
G1 X-14.897 Y13.471 E.0542
G1 X-15.487 Y12.89 E.02596
G1 X-16.285 Y11.867 E.04068
G1 X-17.08 Y10.333 E.05417
G1 X-17.413 Y9.273 E.03484
G1 X-17.614 Y7.988 E.04078
G1 X-17.635 Y7.09 E.02816
G1 X-17.529 Y6.029 E.03343
G1 X-15.675 Y-3.071 E.29119
M204 S1500
G1 E-2.1 F1800
;WIPE_START
G1 F7200
G1 X-15.663 Y-3.13 E-.0143
G1 X-14.918 Y-6.784 E-.8857
;WIPE_END
G1 Z.6 F9000
G1 X-7.011 Y-9.395
G1 Z.2
G1 E3 F1800
M204 S1000
;TYPE:Perimeter
;WIDTH:0.419999
G1 F1200
G1 X-7.237 Y-9.699 E.01188
G1 X-7.416 Y-10.157 E.01542
G1 X-7.433 Y-10.65 E.01547
G1 X-7.318 Y-11.128 E.01541
G1 X-7.05 Y-11.542 E.01546
G1 X-6.682 Y-11.869 E.01544
G1 X-6.226 Y-12.055 E.01544
G1 X-5.737 Y-12.113 E.01544
G1 X-5.257 Y-12.006 E.01542
G1 X-4.822 Y-11.774 E.01546
G1 X-4.489 Y-11.412 E.01542
G1 X-4.265 Y-10.973 E.01545
G1 X-4.198 Y-10.486 E.01541
G1 X-4.231 Y-10.159 E.0103
G1 X-4.395 Y-9.695 E.01543
G1 X-4.703 Y-9.31 E.01546
G1 X-5.102 Y-9.022 E.01543
G1 X-5.574 Y-8.883 E.01543
G1 X-6.067 Y-8.874 E.01546
G1 X-6.534 Y-9.03 E.01544
G1 X-6.943 Y-9.304 E.01544
G1 X-6.975 Y-9.347 E.00168
M204 S1500
G1 X-6.975 Y-9.347 F9000
G1 X-7.336 Y-9.184
M204 S1000
G1 F1200
G1 X-7.567 Y-9.516 E.01268
G1 X-7.727 Y-9.887 E.01267
G1 X-7.808 Y-10.283 E.01267
G1 X-7.808 Y-10.688 E.0127
G1 X-7.727 Y-11.084 E.01267
G1 X-7.567 Y-11.455 E.01267
G1 X-7.336 Y-11.787 E.01268
G1 X-7.043 Y-12.066 E.01269
G1 X-6.7 Y-12.28 E.01268
G1 X-6.321 Y-12.42 E.01267
G1 X-5.921 Y-12.482 E.01269
G1 X-5.517 Y-12.461 E.01268
G1 X-5.126 Y-12.36 E.01266
G1 X-4.763 Y-12.182 E.01268
G1 X-4.443 Y-11.934 E.01269
G1 X-4.179 Y-11.627 E.0127
G1 X-3.983 Y-11.274 E.01266
G1 X-3.862 Y-10.888 E.01268
G1 X-3.821 Y-10.486 E.01267
G1 X-3.862 Y-10.083 E.0127
G1 X-3.983 Y-9.697 E.01268
G1 X-4.179 Y-9.344 E.01266
G1 X-4.443 Y-9.037 E.0127
G1 X-4.763 Y-8.789 E.01269
G1 X-5.126 Y-8.611 E.01268
G1 X-5.517 Y-8.51 E.01266
G1 X-5.921 Y-8.489 E.01268
G1 X-6.321 Y-8.551 E.01269
G1 X-6.7 Y-8.691 E.01267
G1 X-7.043 Y-8.905 E.01268
G1 X-7.293 Y-9.142 E.0108
M204 S1500
G1 X-7.293 Y-9.142 F9000
G1 X-7.622 Y-8.938
M204 S1000
;TYPE:External perimeter
G1 F1200
G1 X-7.897 Y-9.333 E.01509
G1 X-8.086 Y-9.774 E.01504
G1 X-8.183 Y-10.245 E.01508
G1 X-8.183 Y-10.726 E.01508
G1 X-8.086 Y-11.197 E.01508
G1 X-7.897 Y-11.638 E.01504
G1 X-7.622 Y-12.033 E.01509
G1 X-7.274 Y-12.364 E.01506
G1 X-6.866 Y-12.618 E.01507
G1 X-6.415 Y-12.785 E.01508
G1 X-5.94 Y-12.858 E.01507
G1 X-5.46 Y-12.834 E.01507
G1 X-4.995 Y-12.713 E.01507
G1 X-4.563 Y-12.502 E.01507
G1 X-4.183 Y-12.207 E.01508
G1 X-3.87 Y-11.843 E.01505
G1 X-3.637 Y-11.422 E.01509
G1 X-3.493 Y-10.964 E.01505
G1 X-3.444 Y-10.486 E.01507
G1 X-3.493 Y-10.007 E.0151
G1 X-3.637 Y-9.549 E.01505
G1 X-3.87 Y-9.128 E.01509
G1 X-4.183 Y-8.764 E.01505
G1 X-4.563 Y-8.469 E.01508
G1 X-4.995 Y-8.258 E.01507
G1 X-5.46 Y-8.137 E.01507
G1 X-5.94 Y-8.113 E.01507
G1 X-6.415 Y-8.186 E.01507
G1 X-6.866 Y-8.353 E.01508
G1 X-7.274 Y-8.607 E.01507
G1 X-7.579 Y-8.897 E.0132
M204 S1500
G1 E-3 F1800
G1 X-7.579 Y-8.897 Z.6 F9000
G1 X-5.367 Y-11.926
G1 Z.2
G1 E3 F1800
M204 S1000
;TYPE:Solid infill
;WIDTH:0.426082
G1 F1200
G1 X-4.79 Y-11.35 E.02598
G1 X-4.643 Y-11.139 E.00819
G1 X-4.536 Y-10.888 E.00869
G1 X-4.481 Y-10.622 E.00865
G1 X-4.481 Y-10.499 E.00392
G1 X-5.809 Y-11.826 E.05981
G1 X-6.024 Y-11.816 E.00686
G1 X-6.275 Y-11.751 E.00826
G1 X-4.557 Y-10.033 E.07741
G1 X-4.643 Y-9.832 E.00697
G1 X-4.748 Y-9.682 E.00583
G1 X-6.623 Y-11.557 E.08448
G1 X-6.747 Y-11.461 E.005
G1 X-6.896 Y-11.288 E.00727
G1 X-5.017 Y-9.409 E.08466
G1 X-5.227 Y-9.277 E.0079
G1 X-5.373 Y-9.223 E.00496
G1 X-7.083 Y-10.933 E.07705
G1 X-7.138 Y-10.756 E.00591
G1 X-7.164 Y-10.472 E.00909
G1 X-5.838 Y-9.146 E.05975
G1 X-6.024 Y-9.155 E.00593
G1 X-6.287 Y-9.224 E.00866
G1 X-6.532 Y-9.344 E.00869
G1 X-6.734 Y-9.5 E.00813
G1 X-7.255 Y-10.021 E.02347
M204 S1500
G1 E-2.1 F1800
;WIPE_START
G1 F7200
G1 X-6.734 Y-9.5 E-.17499
G1 X-6.532 Y-9.344 E-.06062
G1 X-6.287 Y-9.224 E-.06479
G1 X-6.024 Y-9.155 E-.06458
G1 X-5.838 Y-9.146 E-.04423
G1 X-7.164 Y-10.472 E-.44537
G1 X-7.146 Y-10.663 E-.04542
;WIPE_END
G1 Z.6 F9000
G1 X-9.272 Y5.759
G1 Z.2
G1 E3 F1800
M204 S1000
;TYPE:Perimeter
;WIDTH:0.419999
G1 F1200
G1 X-8.902 Y5.841 E.01188
G1 X-8.468 Y6.073 E.01543
G1 X-8.135 Y6.436 E.01545
G1 X-7.911 Y6.874 E.01542
G1 X-7.844 Y7.362 E.01544
G1 X-7.877 Y7.688 E.01027
G1 X-8.041 Y8.153 E.01546
G1 X-8.348 Y8.537 E.01541
G1 X-8.748 Y8.825 E.01545
G1 X-9.22 Y8.965 E.01544
G1 X-9.712 Y8.973 E.01543
G1 X-10.18 Y8.818 E.01546
G1 X-10.589 Y8.543 E.01545
G1 X-10.883 Y8.149 E.01541
G1 X-11.062 Y7.69 E.01545
G1 X-11.079 Y7.198 E.01544
G1 X-10.963 Y6.719 E.01545
G1 X-10.696 Y6.306 E.01542
G1 X-10.328 Y5.979 E.01544
G1 X-9.872 Y5.792 E.01545
G1 X-9.383 Y5.734 E.01544
G1 X-9.331 Y5.746 E.00167
M204 S1500
G1 X-9.331 Y5.746 F9000
G1 X-9.163 Y5.387
M204 S1000
G1 F1200
G1 X-8.772 Y5.488 E.01266
G1 X-8.408 Y5.666 E.0127
G1 X-8.089 Y5.913 E.01265
G1 X-7.825 Y6.22 E.0127
G1 X-7.629 Y6.574 E.01269
G1 X-7.508 Y6.96 E.01268
G1 X-7.467 Y7.362 E.01267
G1 X-7.508 Y7.764 E.01267
G1 X-7.629 Y8.15 E.01268
G1 X-7.825 Y8.504 E.01269
G1 X-8.089 Y8.811 E.0127
G1 X-8.408 Y9.058 E.01265
G1 X-8.772 Y9.236 E.0127
G1 X-9.163 Y9.338 E.01267
G1 X-9.567 Y9.358 E.01268
G1 X-9.967 Y9.297 E.01269
G1 X-10.346 Y9.156 E.01268
G1 X-10.689 Y8.942 E.01268
G1 X-10.982 Y8.664 E.01266
G1 X-11.213 Y8.332 E.01268
G1 X-11.373 Y7.96 E.0127
G1 X-11.454 Y7.564 E.01267
G1 X-11.454 Y7.16 E.01267
G1 X-11.373 Y6.764 E.01267
G1 X-11.213 Y6.392 E.0127
G1 X-10.982 Y6.06 E.01268
G1 X-10.689 Y5.782 E.01266
G1 X-10.346 Y5.568 E.01268
G1 X-9.967 Y5.427 E.01268
G1 X-9.567 Y5.366 E.01269
G1 X-9.223 Y5.383 E.0108
M204 S1500
G1 X-9.223 Y5.383 F9000
G1 X-9.106 Y5.014
M204 S1000
;TYPE:External perimeter
G1 F1200
G1 X-8.641 Y5.134 E.01506
G1 X-8.209 Y5.346 E.01509
G1 X-7.829 Y5.64 E.01506
G1 X-7.516 Y6.005 E.01508
G1 X-7.283 Y6.425 E.01506
G1 X-7.139 Y6.884 E.01508
G1 X-7.09 Y7.362 E.01507
G1 X-7.139 Y7.84 E.01507
G1 X-7.283 Y8.299 E.01508
G1 X-7.516 Y8.719 E.01506
G1 X-7.829 Y9.084 E.01508
G1 X-8.209 Y9.378 E.01506
G1 X-8.641 Y9.59 E.01509
G1 X-9.106 Y9.71 E.01506
G1 X-9.586 Y9.735 E.01507
G1 X-10.061 Y9.662 E.01507
G1 X-10.512 Y9.495 E.01508
G1 X-10.92 Y9.241 E.01507
G1 X-11.268 Y8.909 E.01508
G1 X-11.543 Y8.515 E.01507
G1 X-11.732 Y8.073 E.01507
G1 X-11.829 Y7.602 E.01508
G1 X-11.829 Y7.122 E.01505
G1 X-11.732 Y6.651 E.01508
G1 X-11.543 Y6.209 E.01507
G1 X-11.268 Y5.815 E.01507
G1 X-10.92 Y5.483 E.01508
G1 X-10.512 Y5.229 E.01507
G1 X-10.061 Y5.062 E.01508
G1 X-9.586 Y4.989 E.01507
G1 X-9.166 Y5.011 E.01319
M204 S1500
G1 X-9.166 Y5.011 F9000
G1 X-9.013 Y5.921
M204 S1000
;TYPE:Solid infill
;WIDTH:0.426082
G1 F1200
G1 X-8.436 Y6.498 E.026
G1 X-8.289 Y6.709 E.00819
G1 X-8.182 Y6.959 E.00866
G1 X-8.127 Y7.226 E.00869
G1 X-8.127 Y7.349 E.00392
G1 X-9.455 Y6.021 E.05984
G1 X-9.669 Y6.032 E.00683
G1 X-9.921 Y6.097 E.00829
G1 X-8.203 Y7.815 E.07741
G1 X-8.289 Y8.015 E.00694
G1 X-8.394 Y8.166 E.00586
G1 X-10.269 Y6.291 E.08448
G1 X-10.393 Y6.387 E.005
G1 X-10.541 Y6.56 E.00725
G1 X-8.663 Y8.439 E.08464
G1 X-8.873 Y8.57 E.00789
G1 X-9.019 Y8.624 E.00496
G1 X-10.728 Y6.915 E.077
G1 X-10.784 Y7.091 E.00588
G1 X-10.81 Y7.375 E.00909
G1 X-9.484 Y8.702 E.05977
G1 X-9.669 Y8.692 E.0059
G1 X-9.933 Y8.624 E.00869
G1 X-10.177 Y8.504 E.00866
G1 X-10.38 Y8.347 E.00818
G1 X-10.901 Y7.826 E.02347
M204 S1500
G1 E-2.1 F1800
;WIPE_START
G1 F7200
G1 X-10.38 Y8.347 E-.17499
G1 X-10.177 Y8.504 E-.06095
G1 X-9.933 Y8.624 E-.06458
G1 X-9.669 Y8.692 E-.06475
G1 X-9.484 Y8.702 E-.044
G1 X-10.81 Y7.375 E-.44554
G1 X-10.792 Y7.186 E-.04519
;WIPE_END
G1 Z.6 F9000
G1 X-1.191 Y1.09
G1 Z.2
G1 E3 F1800
M204 S1000
;TYPE:Perimeter
;WIDTH:0.419999
G1 F1200
G1 X-1.418 Y.787 E.01187
G1 X-1.597 Y.328 E.01545
G1 X-1.613 Y-.164 E.01543
G1 X-1.498 Y-.643 E.01545
G1 X-1.23 Y-1.056 E.01544
G1 X-.862 Y-1.383 E.01544
G1 X-.406 Y-1.57 E.01545
G1 X.083 Y-1.628 E.01544
G1 X.563 Y-1.521 E.01542
G1 X.998 Y-1.289 E.01546
G1 X1.331 Y-.926 E.01545
G1 X1.555 Y-.488 E.01542
G1 X1.622 Y0 E.01544
G1 X1.588 Y.326 E.01028
G1 X1.425 Y.791 E.01545
G1 X1.117 Y1.175 E.01543
G1 X.718 Y1.463 E.01543
G1 X.246 Y1.603 E.01544
G1 X-.247 Y1.611 E.01546
G1 X-.714 Y1.456 E.01543
G1 X-1.123 Y1.181 E.01545
G1 X-1.155 Y1.138 E.00168
M204 S1500
G1 X-1.155 Y1.138 F9000
G1 X-1.516 Y1.302
M204 S1000
G1 F1200
G1 X-1.747 Y.97 E.01268
G1 X-1.907 Y.598 E.0127
G1 X-1.988 Y.202 E.01267
G1 X-1.988 Y-.202 E.01267
G1 X-1.907 Y-.598 E.01267
G1 X-1.747 Y-.97 E.0127
G1 X-1.516 Y-1.302 E.01268
G1 X-1.223 Y-1.58 E.01266
G1 X-.88 Y-1.794 E.01268
G1 X-.501 Y-1.935 E.01268
G1 X-.101 Y-1.996 E.01269
G1 X.303 Y-1.976 E.01268
G1 X.694 Y-1.874 E.01267
G1 X1.057 Y-1.696 E.01268
G1 X1.377 Y-1.449 E.01267
G1 X1.64 Y-1.142 E.01267
G1 X1.837 Y-.788 E.0127
G1 X1.958 Y-.402 E.01268
G1 X1.999 Y0 E.01267
G1 X1.958 Y.402 E.01267
G1 X1.837 Y.788 E.01268
G1 X1.64 Y1.142 E.0127
G1 X1.377 Y1.449 E.01267
G1 X1.057 Y1.696 E.01267
G1 X.694 Y1.874 E.01268
G1 X.303 Y1.976 E.01267
G1 X-.101 Y1.996 E.01268
G1 X-.501 Y1.935 E.01269
G1 X-.88 Y1.794 E.01268
G1 X-1.223 Y1.58 E.01268
G1 X-1.473 Y1.343 E.0108
M204 S1500
G1 X-1.473 Y1.343 F9000
G1 X-1.803 Y1.547
M204 S1000
;TYPE:External perimeter
G1 F1200
G1 X-2.077 Y1.153 E.01505
G1 X-2.267 Y.711 E.01508
G1 X-2.363 Y.24 E.01507
G1 X-2.363 Y-.24 E.01505
G1 X-2.267 Y-.711 E.01507
G1 X-2.077 Y-1.153 E.01508
G1 X-1.803 Y-1.547 E.01505
G1 X-1.454 Y-1.879 E.0151
G1 X-1.046 Y-2.133 E.01507
G1 X-.595 Y-2.3 E.01508
G1 X-.12 Y-2.373 E.01507
G1 X.36 Y-2.348 E.01507
G1 X.825 Y-2.228 E.01506
G1 X1.257 Y-2.016 E.01509
G1 X1.637 Y-1.722 E.01506
G1 X1.95 Y-1.357 E.01508
G1 X2.183 Y-.937 E.01506
G1 X2.327 Y-.478 E.01508
G1 X2.376 Y0 E.01507
G1 X2.327 Y.478 E.01507
G1 X2.183 Y.937 E.01508
G1 X1.95 Y1.357 E.01506
G1 X1.637 Y1.722 E.01508
G1 X1.257 Y2.016 E.01506
G1 X.825 Y2.228 E.01509
G1 X.36 Y2.348 E.01506
G1 X-.12 Y2.373 E.01507
G1 X-.595 Y2.3 E.01507
G1 X-1.046 Y2.133 E.01508
G1 X-1.454 Y1.879 E.01507
G1 X-1.759 Y1.589 E.0132
M204 S1500
G1 E-3 F1800
G1 X-1.759 Y1.589 Z.6 F9000
G1 X.453 Y-1.441
G1 Z.2
G1 E3 F1800
M204 S1000
;TYPE:Solid infill
;WIDTH:0.426082
G1 F1200
G1 X1.03 Y-.864 E.026
G1 X1.177 Y-.653 E.00819
G1 X1.284 Y-.403 E.00866
G1 X1.339 Y-.136 E.00869
G1 X1.339 Y-.013 E.00392
G1 X.011 Y-1.341 E.05984
G1 X-.204 Y-1.33 E.00686
G1 X-.455 Y-1.265 E.00826
G1 X1.263 Y.453 E.07741
G1 X1.177 Y.653 E.00694
G1 X1.072 Y.804 E.00586
G1 X-.803 Y-1.071 E.08448
G1 X-.927 Y-.975 E.005
G1 X-1.076 Y-.802 E.00727
G1 X.803 Y1.077 E.08466
G1 X.593 Y1.208 E.00789
G1 X.447 Y1.262 E.00496
G1 X-1.263 Y-.447 E.07702
G1 X-1.318 Y-.271 E.00587
G1 X-1.344 Y.013 E.00909
G1 X-.018 Y1.34 E.05977
G1 X-.204 Y1.33 E.00593
G1 X-.467 Y1.262 E.00865
G1 X-.712 Y1.142 E.00869
G1 X-.914 Y.985 E.00815
G1 X-1.435 Y.464 E.02347
M204 S1500
G1 E-2.1 F1800
;WIPE_START
G1 F7200
G1 X-.914 Y.985 E-.17499
G1 X-.712 Y1.142 E-.06076
G1 X-.467 Y1.262 E-.06479
G1 X-.204 Y1.33 E-.06452
G1 X-.018 Y1.34 E-.04424
G1 X-1.344 Y.013 E-.44554
G1 X-1.327 Y-.176 E-.04516
;WIPE_END
G1 Z.6 F9000
G1 X8.275 Y-6.272
G1 Z.2
G1 E3 F1800
M204 S1000
;TYPE:Perimeter
;WIDTH:0.419999
G1 F1200
G1 X8.048 Y-6.575 E.01187
G1 X7.869 Y-7.034 E.01545
G1 X7.852 Y-7.526 E.01544
G1 X7.968 Y-8.005 E.01545
G1 X8.235 Y-8.418 E.01542
G1 X8.603 Y-8.745 E.01544
G1 X9.059 Y-8.932 E.01545
G1 X9.548 Y-8.99 E.01544
G1 X10.029 Y-8.883 E.01545
